X:397
T:Reel 397
M:4/4
K:Cmaj
L:1/8
G>E (3EEE G2FE|D>G, (3B,B,G, D>G,G,F,|EFEF G2GE|DG,G,F, G,2CE|GAGE C2DE|FDEC DEFD|EGFD C2DE|G,A,CG ECC2|G>cBc dec2Bc|dGGA BcBc|dcBc defc|d>G (3GGG d2cA|dcBc dece|dBGA BGBc|dedc Bcdc|BGFD DCC2|
